X:1
T:Title
%%score { ( 1 5 ) | ( 2 3 4 ) }
L:1/8
Q:1/4=120
M:6/4
K:Eb
V:1 treble nm="Grand Piano"
V:5 treble 
V:2 bass 
V:3 bass 
V:4 bass 
V:1
 G2 B,2 E2 G2 B2 c2 | B2 E2 A2 G6 | [B,DG]2 [A,DF]2 [A,C]2 [A,B,D]3 [G,B,E] [A,DF]2 | %3
w: Chas.~H.~Gabriel * * * * *|||
 [CDA]2 [B,DG]2 F2 E6 | G2 B,2 E2 G2 B2 c2 | B2 E2 A2 G6 | G2 F2 F2 B3 F F2 | d2 c2 F2 [B,DB]6 | %8
w: |||||
 [Ac]2 B2 A2 [FA]2 G2 F2 | [EG]2 [EG]2 [FA]2 [GB]6 | [Ac]2 c2 c2 [ce]3 d c2 | %11
w: |||
 [Ac]2 B2 [EG]2 [DF]6 | G2 B,2 E2 G2 B2 c2 | B2 G2 E2 c6 | F2 G2 A2 [_DGB]4 [CFA][B,CG] | %15
w: ||||
 [A,CF]2[K:bass] [F,C]2 [A,B,D]2[K:treble] [G,B,E]6 | B6 .B6 | [EGB]2 [B,EG]2 [Ge]2 [EGB]6 | %18
w: |||
 [DAB]2 [DAc]2 [DF]2 [DAB]2 [DAc]2 [B,DF]2 | [B,EB]2 [EB]2 [DAB]2 [EGB]6 | %20
w: ||
 [Ge]2 [Ge]2 [Ge]2 d2 d2 d2 | z2 [Ec]2[K:bass][K:treble] [Ec]2 z6 |[M:25/16] [GB]2 A2 G2 F4 cc3/2 | %23
w: |||
[M:13/8] z z z z z2 E-E-E-E- E3 |] %24
w: |
V:2
 [E,B,E]2 [E,G,]2 [E,G,B,]2 [E,B,E]2 [E,G,E]2 [E,A,E]2 | [E,G,E]2 [E,G,]2 [E,CE]2 [E,B,E]6 | %2
 B,,2 B,,2 B,,2 B,,3 B,, B,,2 | B,,2 B,,2 [B,,A,B,]2 [E,G,B,]6 | %4
 [E,B,E]2 [E,G,]2 [E,G,B,]2 [E,B,E]2 [E,G,E]2 [E,A,E]2 | [E,G,E]2 [E,G,]2 [E,CE]2 [E,B,E]6 | %6
 [F,=A,E]2 [F,A,E]2 [F,A,E]2 [F,B,D]3 [F,B,D] [F,B,D]2 | [F,=A,F]2 [F,A,E]2 [F,A,E]2 B,,6 | %8
 z2[K:treble] G2 F2 z2 E2 D2 | E,2 G,2 B,2 E,2 B,2[K:treble] E2 | %10
 z2 A2 A2[K:bass] z2 z[K:treble] B A2 | z2 .G4 z6 | %12
 [E,B,E]2 [E,G,]2 [E,G,B,]2 [E,B,E]2 [E,G,E]2 [E,A,E]2 | [E,G,E]2 [E,B,E]2 [G,B,]2 [A,E]6 | %14
 [A,CE]2 [G,C=E]2 [F,CF]2 =E,4 F,G, | A,,2 B,,2 B,,2 E,6 | E,2 G,2 B,2 B,,2 B,,2 B,,2 | %17
 E,2 E,2 [E,B,]2 E,6 | F,2 F,2 B,2 B,,2 B,,2 A,2 | G,2 G,2 F,2 E,6 | %20
 [E,B,]2 [E,B,]2 [C,C]2[K:treble] [G,=B,F]2 [G,B,F]2 [G,B,F]2 | %21
 [A,CE]2 .[A,,A,]2 .[C,A,]2 [E,G,E]6 | %22
[M:25/16] [=E,_D]2[K:treble] [F,CF]2 [G,CE]2 [A,C]4 [=A,E_G][A,EG]3/2 | %23
[M:13/8] [B,EG]2[K:bass] [B,,B,]2 [B,,A,]2 [E,G,B,]2 [=B,,_G,]2 [E,,E,]3 |] %24
V:3
 x12 | x12 | x12 | x12 | x12 | x12 | x12 | x12 | B,,6[K:treble] B,6 | x10[K:treble] x2 | %10
 A,6[K:bass] A,,6[K:treble] | z2 z F,G,A, B,2 F,2 B,,2 | x12 | x12 | x12 | x12 | x12 | x12 | x12 | %19
 x12 | x6[K:treble] x6 | x12 |[M:25/16] x2[K:treble] x21/2 |[M:13/8] x2[K:bass] x11 |] %24
V:4
 x12 | x12 | x12 | x12 | x12 | x12 | x12 | x12 | x2[K:treble] x10 | x10[K:treble] x2 | %10
 x6[K:bass] x3[K:treble] x3 | .E,6 z6 | x12 | x12 | x12 | x12 | x12 | x12 | x12 | x12 | %20
 x6[K:treble] x6 | x12 |[M:25/16] x2[K:treble] x21/2 |[M:13/8] x2[K:bass] x11 |] %24
V:5
 x12 | x12 | x12 | x12 | x12 | x12 | x12 | x12 | x12 | x12 | x12 | x12 | x12 | x12 | x12 | %15
 x2[K:bass] x4[K:treble] x6 | [EG]2 E2 [EG]2 [DF]2 [EG]2 [FAB]2 | x12 | x12 | x12 | x12 | %21
 .c3[K:bass] .B,,2[K:treble] D, B6 |[M:25/16] x25/2 |[M:13/8] B2 [EG]2 [DF]2 z2 =B,2 [G,_B,]3 |] %24

